svgs/thin/symbols.svg

<svg xmlns="http://www.w3.org/2000/svg" viewBox="0 0 512 512"><!--! Font Awesome Pro 6.0.0-alpha3 by @fontawesome - https://fontawesome.com License - https://fontawesome.com/license (Commercial License) --><path d="M500.6 7.258c-6.641-5.75-15.41-8.188-23.86-6.938l-114.3 17.5C347.3 20.13 336 34.01 336 50.17v126.4c-11.73-10.06-28.77-16.55-47.1-16.55c-35.35 0-63.1 21.58-63.1 48.09c0 26.52 28.65 47.91 63.1 47.91c35.35 0 64-21.29 64-47.81L352 50.17c0-8.316 5.516-15.41 12.81-16.54l114.3-17.5c3.922-.5313 7.875 .5625 11.03 3.25C493.9 22.57 496 27.35 496 32.57v111.1C484.3 134.5 467.2 127.1 448 127.1c-35.35 0-63.1 21.49-63.1 48s28.65 48 63.1 48C483.3 223.1 512 202.7 512 176.2V32.57C512 22.7 507.8 13.45 500.6 7.258zM288 240c-26.02 0-48-14.66-48-32.01c0-17.34 21.98-32 48-32c26.02 0 48 14.66 48 32C336 225.3 314 240 288 240zM448 207.1c-26.02 0-48-14.65-48-32s21.98-32 48-32c26.02 0 48 14.65 48 32S474 207.1 448 207.1zM8 16h208C220.4 16 224 12.41 224 8S220.4 0 216 0h-208C3.578 0 0 3.594 0 8S3.578 16 8 16zM216 80h-208C3.578 80 0 83.59 0 88S3.578 96 8 96h96v120c0 4.406 3.578 7.979 8 7.979S120 220.4 120 216V96h96C220.4 96 224 92.41 224 88S220.4 80 216 80zM472 431.1c-22.06 0-40 17.94-40 39.1s17.94 39.1 40 39.1S512 494.1 512 471.1S494.1 431.1 472 431.1zM472 496c-13.23 0-24-10.78-24-24S458.8 448 472 448s24 10.78 24 24S485.2 496 472 496zM328 367.1c22.06 0 39.1-17.94 39.1-39.1s-17.94-39.1-39.1-39.1s-39.1 17.94-39.1 39.1S305.9 367.1 328 367.1zM328 304c13.23 0 24 10.78 24 24S341.2 352 328 352s-24-10.78-24-24S314.8 304 328 304zM498.3 290.3l-208 208c-3.125 3.125-3.125 8.188 0 11.31C291.9 511.2 293.1 512 296 512s4.094-.7813 5.656-2.344l208-208c3.125-3.125 3.125-8.188 0-11.31S501.5 287.2 498.3 290.3zM157.5 443.6l46.94-46.94c3.125-3.125 3.125-8.188 0-11.31s-8.188-3.125-11.31 0l-47.08 47.06l-54.89-53.56l28.41-27.22c21.83-21.84 21.83-57.34 0-79.19c-21.12-21.19-58.06-21.19-79.19 0c-21.83 21.84-21.83 57.34 .0625 79.25l27.7 27.03l-40.91 39.19c-21.5 21.5-21.5 56.47 0 77.97c21.5 21.53 56.45 21.53 77.95 0l40.98-40.97l56.2 54.84C203.1 511.3 205.1 512 208 512c2.078 0 4.156-.8125 5.719-2.406c3.094-3.156 3.031-8.219-.125-11.31L157.5 443.6zM51.72 340.3c-15.59-15.59-15.59-40.97 0-56.56C59.27 276.2 69.31 272 80 272s20.73 4.156 28.28 11.72c15.59 15.59 15.59 40.97 .125 56.44l-28.67 27.47L51.72 340.3zM93.91 484.5c-15.22 15.25-40.05 15.28-55.33 0c-15.25-15.25-15.25-40.09-.125-55.22l41.17-39.44l55.14 53.81L93.91 484.5z"/></svg>

<svg xmlns="http://www.w3.org/2000/svg" viewBox="0 0 512 512"><!-- Font Awesome Pro 6.0.0-alpha2 by @fontawesome - https://fontawesome.com License - https://fontawesome.com/license (Commercial License) --><path d="M500.594 7.258C493.953 1.508 485.188 -0.93 476.734 0.32L362.406 17.82C347.344 20.133 336 34.008 336 50.168V176.547C324.27 166.484 307.225 159.992 288 159.992C252.654 159.992 224 181.484 224 207.992C224 234.508 252.654 256 288 256C323.348 256 352 234.508 352 207.992V50.168C352 41.852 357.516 34.758 364.812 33.633L479.156 16.133C483.078 15.602 487.031 16.695 490.188 19.383C493.875 22.57 496 27.352 496 32.57V144.543C484.27 134.48 467.225 127.988 448 127.988C412.654 127.988 384 149.484 384 175.992S412.654 223.996 448 223.996C483.348 223.996 512 202.5 512 175.992V32.57C512 22.695 507.844 13.445 500.594 7.258ZM288 240C261.982 240 240 225.344 240 207.992C240 190.648 261.982 175.992 288 175.992C314.02 175.992 336 190.648 336 207.992C336 225.344 314.02 240 288 240ZM448 207.992C421.982 207.992 400 193.344 400 175.992S421.982 143.988 448 143.988C474.02 143.988 496 158.641 496 175.992S474.02 207.992 448 207.992ZM8 16H216C220.422 16 224 12.406 224 8S220.422 0 216 0H8C3.578 0 0 3.594 0 8S3.578 16 8 16ZM216 80H8C3.578 80 0 83.594 0 88S3.578 96 8 96H104V216C104 220.406 107.578 224 112 224S120 220.406 120 216V96H216C220.422 96 224 92.406 224 88S220.422 80 216 80ZM472 432C449.938 432 432 449.938 432 472S449.938 512 472 512S512 494.062 512 472S494.062 432 472 432ZM472 496C458.766 496 448 485.219 448 472S458.766 448 472 448S496 458.781 496 472S485.234 496 472 496ZM328 368C350.062 368 368 350.062 368 328S350.062 288 328 288S288 305.938 288 328S305.938 368 328 368ZM328 304C341.234 304 352 314.781 352 328S341.234 352 328 352S304 341.219 304 328S314.766 304 328 304ZM498.344 290.344L290.344 498.344C287.219 501.469 287.219 506.531 290.344 509.656C291.906 511.219 293.953 512 296 512S300.094 511.219 301.656 509.656L509.656 301.656C512.781 298.531 512.781 293.469 509.656 290.344S501.469 287.219 498.344 290.344ZM157.531 443.562L204.469 396.625C207.594 393.5 207.594 388.437 204.469 385.312S196.281 382.188 193.156 385.312L146.078 432.375L91.188 378.812L119.594 351.594C141.422 329.75 141.422 294.25 119.594 272.406C98.469 251.219 61.531 251.219 40.406 272.406C18.578 294.25 18.578 329.75 40.469 351.656L68.172 378.688L27.266 417.875C5.766 439.375 5.766 474.344 27.266 495.844C48.766 517.375 83.719 517.375 105.219 495.844L146.203 454.875L202.406 509.719C203.969 511.25 205.984 512 208 512C210.078 512 212.156 511.188 213.719 509.594C216.812 506.438 216.75 501.375 213.594 498.281L157.531 443.562ZM51.719 340.281C36.125 324.688 36.125 299.313 51.719 283.719C59.266 276.156 69.312 272 80 272S100.734 276.156 108.281 283.719C123.875 299.312 123.875 324.687 108.406 340.156L79.734 367.625L51.719 340.281ZM93.906 484.531C78.688 499.781 53.859 499.813 38.578 484.531C23.328 469.281 23.328 444.438 38.453 429.313L79.625 389.875L134.766 443.688L93.906 484.531Z"/></svg>
